X:11
T:The Humors of Tulla
C:Trad.
D:"Cooley", track 9a
M:4/4
R:reel
K:D
d2Ad BdAd|~d2fd edBd|d2Ad BdA2|(3Bcd ef gefe|
d2Ad BdAd|~d2fd edBd|d2Ad BdAd|(3Bcd ef g2fg||
a~f3 d~f3|a~f3 gee2|a~f3 dfeA|(3Bcd ef g2fg|
a~f3 d~f3|a~f3 gee2|a~f3 dfeA|(3Bcd ef g4||
